icons/Apifox-Light.svg

<?xml version="1.0" encoding="UTF-8"?>
<svg id="apifox" width="256" height="256" fill="none" title="ApiFox" version="1.1" viewBox="0 0 256 256" xmlns="http://www.w3.org/2000/svg">
 <style>#apifox {
    rect {fill: #15191C}

    @media (prefers-color-scheme: light) {
        rect {fill: #F4F2ED}
    }
}</style>
 <rect width="256" height="256" rx="40" fill="#f4f2ed"/>
 <path d="m189.12 154.32c-0.866 0.058-1.734 0.087-2.602 0.085h-0.864c1.278-4.963 1.636-10.118 1.056-15.209-5.225 2.603-10.944 4.073-16.779 4.31 0.543-2.732 0.817-5.51 0.816-8.296 0-2.996-0.315-5.986-0.944-8.913-4.355 2.575-9.145 4.335-14.134 5.194l-0.032-0.048c0.532-2.7 0.8-5.444 0.8-8.195 1e-3 -2.534-0.226-5.063-0.677-7.557-4.392 4.633-9.686 8.321-15.557 10.84-5.864 2.512-12.179 3.805-18.561 3.8-7.534 0.01-14.959-1.797-21.642-5.269 3.045-1.185 5.94-2.725 8.624-4.587-7.144-3.45-13.165-8.844-17.371-15.56-5.6052-8.9504-7.6593-19.667-5.7601-30.05 0.8843-4.9391 2.6588-9.6773 5.2374-13.985 1.4471-2.4372 3.1254-4.7059 5.0347-6.8061-14.275 6.5331-26.366 17.022-34.835 30.218-8.4685 13.196-12.957 28.543-12.931 44.212-0.0246 13.675 3.3899 27.138 9.9308 39.155 0.4427-3.937 1.44-7.801 2.9654-11.462 4.9192 11.936 12.73 22.468 22.731 30.651 9.9766 8.164 21.837 13.716 34.507 16.151-2.169-2.849-3.97-5.96-5.36-9.259 6.741 2.197 13.76 3.4 20.838 3.576l1.893 0.021c11.254 0.015 22.359-2.571 32.443-7.556-1.678-0.956-3.289-2.025-4.821-3.199 16.556-6.384 30.075-18.786 37.84-34.711-3.81 1.388-7.797 2.212-11.846 2.448z" fill="url(#linearGradient1)"/>
 <path d="m207.83 115.55c-0.407-5.349-1.427-10.634-3.04-15.752-0.641 1.7335-1.454 3.3985-2.427 4.9705-1.258-8.3509-4.178-16.366-8.586-23.574-7.933-12.962-20.297-22.622-34.811-27.198 5.398 7.0084 8.724 15.384 9.6 24.181l0.08 0.9206v0.1596l0.064 0.9153c0.034 0.5582 0.055 1.1171 0.064 1.6763v1.1068c0.016 9.6628-2.93 19.1-8.443 27.044 1.018 4.831 1.186 9.803 0.496 14.692 2.667-0.633 5.269-1.532 7.76-2.687 1.849-0.852 3.628-1.834 5.339-2.948 0.352 1.217 0.645 2.458 0.88 3.725 0.497 2.625 0.746 5.273 0.746 7.945 0 2.121-0.16 4.232-0.48 6.332 5.639-0.593 11.096-2.329 16.038-5.103 0.441 2.47 0.662 4.973 0.661 7.482 0 2.921-0.298 5.832-0.896 8.69 4.344-0.184 8.633-1.046 12.71-2.555 2.922-7.854 4.416-16.177 4.405-24.563 0.032-1.841-0.021-3.661-0.16-5.46z" fill="url(#linearGradient2)"/>
 <linearGradient id="linearGradient1" x1="48" x2="196.08" y1="53.926" y2="220.17" gradientUnits="userSpaceOnUse">
  <stop stop-color="#FF4385" offset=".01"/>
  <stop stop-color="#FF4274" offset=".276"/>
  <stop stop-color="#FF5C65" offset=".724"/>
  <stop stop-color="#FF5C35" offset="1"/>
 </linearGradient>
 <linearGradient id="linearGradient2" x1="48" x2="196.62" y1="54" y2="213.6" gradientUnits="userSpaceOnUse">
  <stop stop-color="#FF4385" offset=".01"/>
  <stop stop-color="#FF4274" offset=".276"/>
  <stop stop-color="#FF5C65" offset=".724"/>
  <stop stop-color="#FF5C35" offset="1"/>
 </linearGradient>
</svg>

<?xml version="1.0" encoding="UTF-8" standalone="no"?>
<svg
   width="256"
   height="256"
   title="ApiFox"
   viewBox="0 0 256 256"
   fill="none"
   id="apifox"
   version="1.1"
   sodipodi:docname="Apifox-Light.svg"
   inkscape:version="1.4.2 (ebf0e940, 2025-05-08)"
   xmlns:inkscape="http://www.inkscape.org/namespaces/inkscape"
   xmlns:sodipodi="http://sodipodi.sourceforge.net/DTD/sodipodi-0.dtd"
   xmlns="http://www.w3.org/2000/svg"
   xmlns:svg="http://www.w3.org/2000/svg">
  <defs
     id="defs9" />
  <sodipodi:namedview
     id="namedview9"
     pagecolor="#ffffff"
     bordercolor="#000000"
     borderopacity="0.25"
     inkscape:showpageshadow="2"
     inkscape:pageopacity="0.0"
     inkscape:pagecheckerboard="0"
     inkscape:deskcolor="#d1d1d1"
     inkscape:zoom="1.1034316"
     inkscape:cx="142.73653"
     inkscape:cy="110.56417"
     inkscape:window-width="1512"
     inkscape:window-height="921"
     inkscape:window-x="0"
     inkscape:window-y="61"
     inkscape:window-maximized="0"
     inkscape:current-layer="apifox" />
  <style
     id="style1">
#apifox {
    rect {fill: #15191C}

    @media (prefers-color-scheme: light) {
        rect {fill: #F4F2ED}
    }
}
</style>
  <rect
     width="256"
     height="256"
     rx="40"
     fill="#15191C"
     id="rect1"
     style="fill:#f4f2ed;fill-opacity:1" />
  <path
     d="M189.121 154.32C188.255 154.378 187.387 154.407 186.519 154.405H185.655C186.933 149.442 187.291 144.287 186.711 139.196C181.486 141.799 175.767 143.269 169.932 143.506C170.475 140.774 170.749 137.996 170.748 135.21C170.748 132.214 170.433 129.224 169.804 126.297C165.449 128.872 160.659 130.632 155.67 131.491L155.638 131.443C156.17 128.743 156.438 125.999 156.438 123.248C156.439 120.714 156.212 118.185 155.761 115.691C151.369 120.324 146.075 124.012 140.204 126.531C134.34 129.043 128.025 130.336 121.643 130.331C114.109 130.341 106.684 128.534 100.001 125.062C103.046 123.877 105.941 122.337 108.625 120.475C101.481 117.025 95.4598 111.631 91.2539 104.915C85.6487 95.9646 83.5946 85.2482 85.4938 74.8654C86.3781 69.9263 88.1526 65.1881 90.7312 60.8806C92.1783 58.4434 93.8566 56.1747 95.7659 54.0745C81.4913 60.6076 69.3995 71.0968 60.9309 84.2929C52.4624 97.4891 47.9739 112.836 48.0001 128.505C47.9755 142.18 51.39 155.643 57.9309 167.66C58.3736 163.723 59.3709 159.859 60.8963 156.198C65.8155 168.134 73.6258 178.666 83.6271 186.849C93.6037 195.013 105.464 200.565 118.134 203C115.965 200.151 114.164 197.04 112.774 193.741C119.515 195.938 126.534 197.141 133.612 197.317L135.505 197.338C146.759 197.353 157.864 194.767 167.948 189.782C166.27 188.826 164.659 187.757 163.127 186.583C179.683 180.199 193.202 167.797 200.967 151.872C197.157 153.26 193.17 154.084 189.121 154.32Z"
     fill="url(#linearGradient1)"
     id="path1" />
  <path
     d="M207.831 115.553C207.424 110.204 206.404 104.919 204.791 99.8015C204.15 101.535 203.337 103.2 202.364 104.772C201.106 96.4211 198.186 88.4059 193.778 81.1978C185.845 68.236 173.481 58.5755 158.967 54C164.365 61.0084 167.691 69.3844 168.567 78.1806L168.647 79.1012V79.2608L168.711 80.1761C168.745 80.7343 168.766 81.2932 168.775 81.8524V82.9592C168.791 92.622 165.845 102.059 160.332 110.003C161.35 114.834 161.518 119.806 160.828 124.695C163.495 124.062 166.097 123.163 168.588 122.008C170.437 121.156 172.216 120.174 173.927 119.06C174.279 120.277 174.572 121.518 174.807 122.785C175.304 125.41 175.553 128.058 175.553 130.73C175.553 132.851 175.393 134.962 175.073 137.062C180.712 136.469 186.169 134.733 191.111 131.959C191.552 134.429 191.773 136.932 191.772 139.441C191.772 142.362 191.474 145.273 190.876 148.131C195.22 147.947 199.509 147.085 203.586 145.576C206.508 137.722 208.002 129.399 207.991 121.013C208.023 119.172 207.97 117.352 207.831 115.553Z"
     fill="url(#linearGradient2)"
     id="path2" />
  <linearGradient
     id="linearGradient1"
     x1="48.0001"
     y1="53.9255"
     x2="196.08"
     y2="220.171"
     gradientUnits="userSpaceOnUse">
    <stop
       offset="0.01"
       stop-color="#FF4385"
       id="stop2" />
    <stop
       offset="0.276"
       stop-color="#FF4274"
       id="stop3" />
    <stop
       offset="0.724"
       stop-color="#FF5C65"
       id="stop4" />
    <stop
       offset="1"
       stop-color="#FF5C35"
       id="stop5" />
  </linearGradient>
  <linearGradient
     id="linearGradient2"
     x1="48.0002"
     y1="54"
     x2="196.62"
     y2="213.598"
     gradientUnits="userSpaceOnUse">
    <stop
       offset="0.01"
       stop-color="#FF4385"
       id="stop6" />
    <stop
       offset="0.276"
       stop-color="#FF4274"
       id="stop7" />
    <stop
       offset="0.724"
       stop-color="#FF5C65"
       id="stop8" />
    <stop
       offset="1"
       stop-color="#FF5C35"
       id="stop9" />
  </linearGradient>
</svg>
